build/img/mysql.svg

<svg width="40" height="28" viewBox="0 0 40 28" fill="none" xmlns="http://www.w3.org/2000/svg">
<path d="M12.4133 18.2698L13.5822 22.0627C13.8449 22.9238 13.9544 23.525 13.9105 23.8676C14.5499 22.1554 14.9966 20.2894 15.2507 18.2698H16.6563C16.0519 21.5577 15.2548 23.947 14.2653 25.4375C13.4943 26.5861 12.6498 27.1604 11.7301 27.1604C11.4849 27.1604 11.1826 27.0863 10.8239 26.9392V26.1466C10.9991 26.1723 11.2047 26.1861 11.4412 26.1861C11.8703 26.1861 12.2161 26.0671 12.4792 25.8298C12.7942 25.5407 12.9519 25.2157 12.9519 24.8555C12.9519 24.6095 12.8289 24.1047 12.5841 23.3412L10.9553 18.2698H12.4132H12.4133ZM3.46684 15.9386L5.60791 22.4712H5.62113L7.77535 15.9386H9.53539C9.92078 19.1783 10.1484 22.1425 10.2183 24.8294H8.7344C8.68219 22.3177 8.53757 19.9559 8.30108 17.7436H8.28816L6.02854 24.8294H4.8985L2.65255 17.7436H2.63933C2.4727 19.8683 2.36783 22.23 2.32411 24.8294H0.970947C1.05839 21.6681 1.27723 18.7048 1.62747 15.9386H3.46691H3.46684Z" fill="#00758F"/>
<path d="M27.4525 15.8068C29.7556 15.8068 30.9072 17.2782 30.9072 20.2196C30.9072 21.818 30.5609 23.0253 29.8689 23.841C29.7442 23.99 29.6063 24.1188 29.4612 24.2381L31.091 25.044L31.0894 25.0439L30.5107 26.0432L28.3882 24.8048C28.0364 24.909 27.6493 24.961 27.2275 24.961C26.0966 24.961 25.2519 24.6314 24.6934 23.9731C24.0804 23.2448 23.774 22.0984 23.774 20.5356C23.774 18.9463 24.1198 17.7435 24.812 16.9268C25.4424 16.1798 26.3227 15.8068 27.4525 15.8068V15.8068ZM20.3997 15.8198C21.2229 15.8198 21.9713 16.04 22.6455 16.479L22.3031 17.242C21.7262 16.9968 21.1574 16.8737 20.5965 16.8737C20.1414 16.8737 19.7907 16.9832 19.5463 17.2036C19.3005 17.4221 19.1484 17.7032 19.1484 18.0459C19.1484 18.5726 19.5236 19.0293 20.2163 19.4151C20.4433 19.5392 20.6694 19.6646 20.8948 19.7916L20.9465 19.8206L20.9724 19.8352L21.0241 19.8643L21.05 19.8789L21.1017 19.908C21.626 20.2036 22.1195 20.4858 22.1195 20.4858C22.8121 20.9775 23.1574 21.5017 23.1574 22.3651C23.1574 23.1192 22.8811 23.7381 22.3303 24.2225C21.7791 24.7046 21.0386 24.9464 20.1112 24.9464C19.2439 24.9464 18.4033 24.6681 17.5891 24.1162L17.97 23.3525C18.6707 23.7037 19.3047 23.8791 19.8741 23.8791C20.4081 23.8791 20.8261 23.7599 21.1285 23.5245C21.4303 23.2873 21.6111 22.9565 21.6111 22.5371C21.6111 22.0092 21.2439 21.5579 20.5702 21.1794C20.3594 21.0629 20.1492 20.9452 19.9396 20.8265L19.8879 20.7973C19.7931 20.7437 19.6977 20.6895 19.6041 20.6363L19.5534 20.6075C19.0985 20.3488 18.7052 20.1227 18.7052 20.1227C18.0318 19.6301 17.6941 19.1016 17.6941 18.2308C17.6941 17.5105 17.946 16.9284 18.4488 16.4855C18.9529 16.0417 19.6033 15.8198 20.3997 15.8198V15.8198ZM33.6139 15.9388V23.7359H36.4114V24.8295H32.1951V15.9388H33.6139ZM37.9659 23.7392V23.9241H37.6583V24.8286H37.4232V23.9241H37.1037V23.7392H37.966H37.9659ZM38.5338 23.7392L38.8292 24.4818L39.1004 23.7392H39.4338V24.8286H39.2121V23.9996L38.9034 24.8286H38.7436L38.4343 23.9996H38.4224V24.8286H38.2128V23.7392H38.5339H38.5338ZM27.3076 16.9002C25.9504 16.9002 25.2714 18.0203 25.2714 20.2591C25.2714 21.5415 25.4514 22.4714 25.8105 23.051C26.1432 23.5873 26.6642 23.855 27.3736 23.855C28.7308 23.855 29.4097 22.7262 29.4097 20.4696C29.4097 19.2051 29.2298 18.2832 28.8711 17.7033C28.538 17.1681 28.0173 16.9002 27.3077 16.9002H27.3076Z" fill="#F29111"/>
<path d="M23.7505 1.51965C24.2007 0.413353 25.775 1.25115 26.3859 1.6376C26.5356 1.73428 26.7073 1.93855 26.879 2.01405C27.1468 2.02457 27.4144 2.04553 27.6827 2.05672C28.1859 2.17497 28.6572 2.27158 29.0537 2.49741C30.8964 3.58259 32.0959 4.68844 33.1999 6.51504C33.4358 6.90193 33.5537 7.3206 33.7464 7.73928C34.0138 8.36334 34.3143 9.01844 34.6247 9.60855C34.7637 9.88831 34.8712 10.1994 35.0642 10.4357C35.1396 10.5437 35.3536 10.5756 35.4815 10.6401C35.8352 10.8232 36.2637 10.9622 36.5964 11.177C37.2176 11.5644 37.8182 12.0259 38.3642 12.4985C38.5678 12.6809 38.7064 12.9391 38.9003 13.132V13.2294C38.7282 13.2822 38.5567 13.3363 38.3851 13.3796C38.0101 13.4759 37.678 13.4541 37.3142 13.5505C37.0894 13.6157 36.8104 13.7018 36.5746 13.7236L36.5964 13.7456C36.7351 14.1418 37.4854 14.4641 37.8286 14.7011C38.2454 15.0019 38.6316 15.3668 38.9425 15.7857C39.0498 15.8926 39.1572 15.9899 39.264 16.0965C39.3387 16.2046 39.3597 16.3443 39.4353 16.4406V16.4732C39.3516 16.4437 39.2914 16.3873 39.2344 16.3284L39.2004 16.2929C39.1664 16.2576 39.132 16.2229 39.0929 16.1943C38.8564 16.0327 38.6216 15.8395 38.3851 15.6893C37.9785 15.4314 37.5069 15.2816 37.0894 15.0227C36.8534 14.8724 36.6284 14.7011 36.4034 14.5291C36.1994 14.3783 35.9748 14.0888 35.8466 13.8739C35.7711 13.7552 35.7608 13.6157 35.6745 13.5299C35.6899 13.3865 35.8213 13.3439 35.9539 13.3088L35.9844 13.3008C36.0302 13.2889 36.075 13.2771 36.114 13.2614C36.671 13.0249 37.335 12.9391 38.1925 12.9606C38.1602 12.7453 37.6244 12.477 37.4534 12.3481C37.11 12.1006 36.7465 11.8424 36.3823 11.6172C36.1893 11.4992 35.8567 11.4131 35.6429 11.3167C35.3536 11.1985 34.7106 11.0803 34.5503 10.8551C34.278 10.5001 34.0823 10.0766 33.8924 9.64881L33.8407 9.53207C33.8235 9.49316 33.8062 9.45427 33.7889 9.4154C33.5644 8.90027 33.2855 8.36319 33.0605 7.83574C32.9429 7.57843 32.8889 7.35261 32.76 7.10582C31.9782 5.59144 30.8211 4.32355 29.4181 3.43189C28.9571 3.14176 28.443 2.87326 27.8755 2.69078C27.5539 2.59364 27.1679 2.64736 26.8252 2.57283H26.5997C26.4072 2.51859 26.2465 2.31455 26.0964 2.20697C25.7647 1.98175 25.4325 1.83052 25.0358 1.66982C24.8968 1.60537 24.4999 1.45527 24.3614 1.57344C24.2756 1.595 24.2321 1.62738 24.211 1.71347C24.1257 1.84194 24.2007 2.03546 24.2538 2.15393C24.4147 2.49726 24.6395 2.7013 24.8436 2.99143C25.0251 3.24873 25.2505 3.53887 25.3792 3.81864C25.6569 4.42001 25.7862 5.0863 26.0435 5.6876C26.1389 5.91373 26.2898 6.17104 26.4287 6.375C26.5464 6.5369 26.7605 6.65394 26.8252 6.85888C26.9543 7.07374 26.632 7.7827 26.5574 8.00785C26.2783 8.88885 26.3324 10.1135 26.6538 10.8771L26.6709 10.9174L26.688 10.9582C26.8054 11.2379 26.931 11.539 27.243 11.6172C27.2645 11.5959 27.243 11.6071 27.2856 11.5959C27.3611 11.0048 27.3823 10.4356 27.5861 9.97313C27.7038 9.68397 27.9389 9.47956 28.1 9.24351C28.2074 9.30782 28.2074 9.50172 28.2715 9.63003C28.4109 9.96284 28.5606 10.3277 28.7325 10.6615C29.0853 11.3489 29.4823 12.0153 29.932 12.6166C30.0827 12.8314 30.2964 13.0678 30.4892 13.2613C30.575 13.3362 30.6712 13.3795 30.7357 13.4759H30.7568V13.5083C30.4354 13.3898 30.2316 13.0573 29.9753 12.8632C29.4927 12.4983 28.9148 11.9504 28.5821 11.4246C28.443 11.1227 28.2926 10.8334 28.1426 10.533V10.5113C28.0785 10.5971 28.1 10.6823 28.0679 10.8121C27.9288 11.3489 28.0359 11.9612 27.5539 12.1543C27.0074 12.3804 26.5998 11.7894 26.4287 11.5209C25.8821 10.6294 25.7324 9.12557 26.1178 7.91162C26.2035 7.64289 26.2151 7.3206 26.3646 7.10605C26.3323 6.91207 26.1828 6.85903 26.0964 6.74019C25.9464 6.53705 25.818 6.3004 25.7006 6.0748C25.4751 5.63412 25.3146 5.10756 25.1434 4.63495C25.0681 4.44195 25.0466 4.2482 24.9715 4.0655C24.8435 3.78663 24.6075 3.50687 24.4255 3.26015C24.179 2.90556 23.4611 2.21832 23.7505 1.51965V1.51965ZM27.2642 3.62429C27.2929 3.65298 27.3274 3.67808 27.3632 3.70279L27.4063 3.73239C27.4638 3.77221 27.5195 3.81413 27.5536 3.87122C27.6076 3.9468 27.6177 4.0214 27.6825 4.09713C27.6825 4.35533 27.6076 4.52699 27.4566 4.63397C27.4566 4.63397 27.4463 4.64524 27.4357 4.65576C27.35 4.48365 27.275 4.31243 27.1887 4.14047C27.0825 3.99037 26.9323 3.8713 26.8458 3.69979H26.825V3.67823C26.9543 3.6463 27.0825 3.62429 27.2642 3.62429Z" fill="#00758F"/>
</svg>

<svg width="40" height="28" fill="none" xmlns="http://www.w3.org/2000/svg"><path d="M12.413 18.27l1.17 3.793c.262.86.371 1.462.328 1.805.639-1.713 1.086-3.579 1.34-5.598h1.405c-.604 3.288-1.401 5.677-2.39 7.168-.772 1.148-1.616 1.722-2.536 1.722-.245 0-.547-.074-.906-.22v-.793c.175.025.38.04.617.04.43 0 .775-.12 1.038-.357.315-.29.473-.614.473-.974 0-.247-.123-.751-.368-1.515l-1.629-5.071h1.458zm-8.946-2.331l2.14 6.532h.014l2.154-6.532h1.76c.386 3.24.613 6.203.683 8.89H8.734a83.037 83.037 0 00-.433-7.085h-.013l-2.26 7.085h-1.13l-2.245-7.085h-.014a116.287 116.287 0 00-.315 7.085H.971c.087-3.16.306-6.124.656-8.89h1.84z" fill="#00758F"/><path d="M27.453 15.807c2.303 0 3.454 1.471 3.454 4.413 0 1.598-.346 2.805-1.038 3.621a3.047 3.047 0 01-.408.397l1.63.806h-.002l-.578 1-2.123-1.24a4.076 4.076 0 01-1.16.157c-1.131 0-1.976-.33-2.535-.988-.613-.728-.919-1.875-.919-3.437 0-1.59.346-2.793 1.038-3.61.63-.746 1.51-1.12 2.64-1.12zm-7.053.013c.823 0 1.571.22 2.245.659l-.342.763a4.34 4.34 0 00-1.707-.368c-.455 0-.805.11-1.05.33-.245.218-.398.5-.398.842 0 .527.376.983 1.068 1.37.227.123.453.249.679.376l.052.029.025.014.052.03.026.014.052.029c.524.296 1.017.578 1.017.578.693.491 1.038 1.016 1.038 1.88 0 .753-.276 1.372-.827 1.857-.55.482-1.291.723-2.219.723-.867 0-1.708-.278-2.522-.83l.381-.764c.7.352 1.335.527 1.904.527.534 0 .952-.12 1.255-.355.301-.237.482-.568.482-.987 0-.528-.367-.98-1.04-1.358a54.245 54.245 0 01-.631-.352l-.052-.03-.284-.16-.05-.03c-.455-.258-.849-.484-.849-.484-.673-.493-1.01-1.021-1.01-1.892 0-.72.251-1.303.754-1.746.504-.443 1.154-.665 1.95-.665zm13.214.119v7.797h2.797v1.093h-4.216v-8.89h1.419zm4.352 7.8v.185h-.308v.905h-.235v-.905h-.32v-.185h.863zm.568 0l.295.743.271-.743h.334v1.09h-.222v-.83l-.309.83h-.16l-.309-.83h-.012v.83h-.21v-1.09h.322zM27.308 16.9c-1.358 0-2.037 1.12-2.037 3.36 0 1.281.18 2.211.54 2.791.332.536.853.804 1.563.804 1.357 0 2.036-1.129 2.036-3.385 0-1.265-.18-2.187-.539-2.767-.333-.535-.854-.803-1.563-.803z" fill="#F29111"/><path d="M23.75 1.52c.45-1.107 2.025-.269 2.636.118.15.096.321.3.493.376.268.01.535.032.804.043.503.118.974.215 1.37.44 1.843 1.086 3.043 2.191 4.147 4.018.236.387.354.806.546 1.224.268.624.568 1.28.879 1.87.139.28.246.59.44.827.075.108.289.14.416.204.354.183.783.322 1.115.537.622.387 1.222.849 1.768 1.322.204.182.342.44.536.633v.097c-.172.053-.343.107-.515.15-.375.097-.707.075-1.07.171-.226.066-.505.152-.74.174l.021.022c.14.396.89.718 1.233.955.416.3.803.666 1.114 1.085.107.107.214.204.321.31.075.109.096.248.171.345v.032a.525.525 0 01-.2-.145l-.035-.035a.847.847 0 00-.107-.099c-.237-.161-.471-.354-.708-.505-.407-.258-.878-.407-1.296-.666a9.908 9.908 0 01-.686-.494c-.204-.15-.428-.44-.556-.655-.076-.119-.086-.258-.172-.344.015-.143.146-.186.279-.221l.03-.008a1.09 1.09 0 00.13-.04c.557-.236 1.221-.322 2.079-.3-.033-.216-.569-.484-.74-.613a18.6 18.6 0 00-1.07-.73c-.194-.119-.526-.205-.74-.301-.29-.119-.932-.237-1.093-.462-.272-.355-.468-.778-.658-1.206l-.051-.117a50.467 50.467 0 00-.052-.117c-.225-.515-.504-1.052-.729-1.58-.117-.257-.171-.482-.3-.73a9.523 9.523 0 00-3.342-3.673 6.844 6.844 0 00-1.543-.741c-.321-.097-.707-.044-1.05-.118H26.6c-.193-.054-.354-.258-.504-.366-.331-.225-.663-.376-1.06-.537-.14-.065-.536-.215-.675-.097-.085.022-.129.054-.15.14-.085.129-.01.322.043.44.16.344.386.548.59.838.181.258.406.548.535.828.278.601.407 1.267.665 1.869.095.226.246.483.385.687.117.162.332.279.396.484.13.215-.193.924-.268 1.149-.279.88-.225 2.106.097 2.87l.017.04.017.04c.117.28.243.581.555.66.022-.022 0-.01.043-.022.075-.591.096-1.16.3-1.623.118-.289.353-.493.514-.73.107.065.107.259.171.387.14.333.29.698.462 1.031.352.688.75 1.354 1.199 1.956.15.214.364.45.557.644.086.075.182.119.247.215h.02v.032c-.32-.118-.524-.45-.78-.645-.483-.365-1.061-.913-1.394-1.438-.139-.302-.29-.592-.44-.892v-.022c-.064.086-.042.171-.074.301-.14.537-.032 1.15-.514 1.342-.547.226-.954-.365-1.125-.633-.547-.892-.697-2.395-.311-3.61.085-.268.097-.59.247-.805-.033-.194-.182-.247-.269-.366a5.066 5.066 0 01-.395-.665c-.226-.44-.386-.967-.558-1.44-.075-.193-.096-.387-.172-.57-.128-.278-.363-.558-.546-.805-.246-.354-.964-1.042-.675-1.74zm3.514 2.104a.708.708 0 00.1.079l.042.03a.48.48 0 01.148.138c.054.076.064.15.129.226 0 .258-.075.43-.226.537l-.021.022c-.086-.172-.161-.344-.247-.516-.107-.15-.257-.269-.343-.44h-.021v-.022a1.71 1.71 0 01.44-.054z" fill="#00758F"/></svg>
